Default.style/zoo.svg

<svg width="32" height="32" xmlns="http://www.w3.org/2000/svg"><path d="M31.738 8.087c-.523 1.12-1.665 1.736-2.549 1.376-.885-.359-1.176-1.558-.652-2.678.524-1.12 1.666-1.735 2.549-1.376.885.359 1.176 1.558.652 2.678Zm-5.767-2.266c-.992-.198-1.596-1.544-1.348-3.006.248-1.463 1.253-2.488 2.246-2.29.992.198 1.596 1.544 1.348 3.006-.248 1.463-1.254 2.488-2.246 2.29Zm1.054 4.614c.961 1.037 1.705 1.433 2.17 2.762.41 1.171-.025 2.456-1.162 3.07-1.137.613-2.867-.154-3.486-.308a3.587 3.587 0 0 0-.689-.09l-.008.014s-.142-.014-.35-.018c-.209.004-.35.018-.35.018l-.01-.014c-.22.01-.463.035-.688.09-.619.153-2.352.921-3.487.308-1.136-.614-1.571-1.898-1.161-3.07.465-1.33 1.209-1.726 2.17-2.762 1.234-1.333 1.316-1.995 2.246-2.608.576-.38.896-.386 1.279-.384.384-.002.703.004 1.277.384.933.613 1.015 1.275 2.249 2.608Zm-5.998-4.631c-.991.197-1.996-.825-2.244-2.283-.248-1.458.355-2.8 1.348-2.997.993-.197 1.998.825 2.246 2.283s-.356 2.8-1.35 2.997Zm-3.216 3.659c-.885.36-2.024-.256-2.548-1.376-.524-1.12-.232-2.319.652-2.678.883-.359 2.023.256 2.549 1.376.522 1.12.229 2.319-.653 2.678Zm-1.725 10.946c.885.358 1.176 1.558.652 2.677-.524 1.119-1.665 1.736-2.549 1.377-.884-.359-1.176-1.559-.652-2.68.525-1.118 1.666-1.733 2.549-1.374Zm-5.115.411c-.992-.197-1.596-1.544-1.348-3.006.248-1.463 1.253-2.488 2.246-2.29.992.198 1.596 1.544 1.348 3.006-.248 1.463-1.254 2.488-2.246 2.29Zm1.055 4.614c.96 1.037 1.705 1.435 2.17 2.762.409 1.173-.026 2.457-1.163 3.07s-2.867-.154-3.486-.307a3.515 3.515 0 0 0-.689-.092l-.009.014s-.141-.014-.349-.018a4.806 4.806 0 0 0-.349.018l-.01-.014c-.22.01-.464.035-.688.092-.62.152-2.351.92-3.488.307-1.136-.613-1.572-1.897-1.162-3.07.465-1.327 1.209-1.725 2.17-2.762 1.235-1.332 1.317-1.994 2.248-2.606.576-.382.895-.388 1.279-.386.384-.002.703.004 1.278.386.931.611 1.013 1.274 2.248 2.606Zm-5.998-4.629c-.992.195-1.998-.825-2.246-2.283s.356-2.8 1.349-2.997c.992-.198 1.998.824 2.246 2.283.248 1.457-.356 2.797-1.349 2.997Zm-3.217 3.658c-.884.359-2.025-.258-2.549-1.377S.03 20.77.914 20.409c.884-.36 2.025.256 2.549 1.374.523 1.121.231 2.321-.652 2.68Z" fill="#888" fill-rule="evenodd"/></svg>

<?xml version="1.0" encoding="UTF-8" standalone="no"?>
<svg width="32px" height="32px" viewBox="0 0 32 32" version="1.1" xmlns="http://www.w3.org/2000/svg" xmlns:xlink="http://www.w3.org/1999/xlink" xmlns:sketch="http://www.bohemiancoding.com/sketch/ns">
    <!-- Generator: Sketch 3.2.2 (9983) - http://www.bohemiancoding.com/sketch -->
    <title>zoo</title>
    <desc>Created with Sketch.</desc>
    <defs></defs>
    <g id="p" stroke="none" stroke-width="1" fill="none" fill-rule="evenodd" sketch:type="MSPage">
        <g id="zoo" sketch:type="MSLayerGroup" fill="#888888">
            <path d="M31.738,8.087 C31.215,9.207 30.073,9.823 29.189,9.463 C28.304,9.104 28.013,7.905 28.537,6.785 C29.061,5.665 30.203,5.05 31.086,5.409 C31.971,5.768 32.262,6.967 31.738,8.087 L31.738,8.087 Z M25.971,5.821 C24.979,5.623 24.375,4.277 24.623,2.815 C24.871,1.352 25.876,0.327 26.869,0.525 C27.861,0.723 28.465,2.069 28.217,3.531 C27.969,4.994 26.963,6.019 25.971,5.821 L25.971,5.821 Z M27.025,10.435 C27.986,11.472 28.73,11.868 29.195,13.197 C29.605,14.368 29.17,15.653 28.033,16.267 C26.896,16.88 25.166,16.113 24.547,15.959 C24.322,15.904 24.078,15.878 23.858,15.869 L23.85,15.883 C23.85,15.883 23.708,15.869 23.5,15.865 C23.291,15.869 23.15,15.883 23.15,15.883 L23.14,15.869 C22.92,15.879 22.677,15.904 22.452,15.959 C21.833,16.112 20.1,16.88 18.965,16.267 C17.829,15.653 17.394,14.369 17.804,13.197 C18.269,11.867 19.013,11.471 19.974,10.435 C21.208,9.102 21.29,8.44 22.22,7.827 C22.796,7.447 23.116,7.441 23.499,7.443 C23.883,7.441 24.202,7.447 24.776,7.827 C25.709,8.44 25.791,9.102 27.025,10.435 L27.025,10.435 Z M21.027,5.804 C20.036,6.001 19.031,4.979 18.783,3.521 C18.535,2.063 19.138,0.721 20.131,0.524 C21.124,0.327 22.129,1.349 22.377,2.807 C22.625,4.265 22.021,5.607 21.027,5.804 L21.027,5.804 Z M17.811,9.463 C16.926,9.823 15.787,9.207 15.263,8.087 C14.739,6.967 15.031,5.768 15.915,5.409 C16.798,5.05 17.938,5.665 18.464,6.785 C18.986,7.905 18.693,9.104 17.811,9.463 L17.811,9.463 Z M16.086,20.409 C16.971,20.767 17.262,21.967 16.738,23.086 C16.214,24.205 15.073,24.822 14.189,24.463 C13.305,24.104 13.013,22.904 13.537,21.783 C14.062,20.665 15.203,20.05 16.086,20.409 L16.086,20.409 Z M10.971,20.82 C9.979,20.623 9.375,19.276 9.623,17.814 C9.871,16.351 10.876,15.326 11.869,15.524 C12.861,15.722 13.465,17.068 13.217,18.53 C12.969,19.993 11.963,21.018 10.971,20.82 L10.971,20.82 Z M12.026,25.434 C12.986,26.471 13.731,26.869 14.196,28.196 C14.605,29.369 14.17,30.653 13.033,31.266 C11.896,31.879 10.166,31.112 9.547,30.959 C9.322,30.902 9.078,30.877 8.858,30.867 L8.849,30.881 C8.849,30.881 8.708,30.867 8.5,30.863 C8.291,30.867 8.151,30.881 8.151,30.881 L8.141,30.867 C7.921,30.877 7.677,30.902 7.453,30.959 C6.833,31.111 5.102,31.879 3.965,31.266 C2.829,30.653 2.393,29.369 2.803,28.196 C3.268,26.869 4.012,26.471 4.973,25.434 C6.208,24.102 6.29,23.44 7.221,22.828 C7.797,22.446 8.116,22.44 8.5,22.442 C8.884,22.44 9.203,22.446 9.778,22.828 C10.709,23.439 10.791,24.102 12.026,25.434 L12.026,25.434 Z M6.028,20.805 C5.036,21 4.03,19.98 3.782,18.522 C3.534,17.064 4.138,15.722 5.131,15.525 C6.123,15.327 7.129,16.349 7.377,17.808 C7.625,19.265 7.021,20.605 6.028,20.805 L6.028,20.805 Z M2.811,24.463 C1.927,24.822 0.786,24.205 0.262,23.086 C-0.262,21.967 0.03,20.77 0.914,20.409 C1.798,20.049 2.939,20.665 3.463,21.783 C3.986,22.904 3.694,24.104 2.811,24.463 L2.811,24.463 Z" id="Shape" sketch:type="MSShapeGroup"></path>
        </g>
    </g>
</svg>
